X: 1
T: from A Midsummer Night's Dream
M:2/4
L: 1/4
Q: 1/2=50
K: C
 (g/4a/4g/4f/4) e/2e/2| f/2f/2d | e/2e/2c/2c/2 | (d/4c/4d/4e/4) d/2d/2 | (g/4a/4g/4f/4) e/2e/2| f/2f/2d | e/2c/2d/2G/2 | c/2e/2 c |]
